X: 11785
T: Elizabeth Kelly's Delight
R: slip jig
M: 9/8
K: Adorian
|:e3 efe edB|e3 d2 B ABd|e3 efe edB|ddd d2 B ABd:|
|:g3 fed e2 B|g3 fed ABd|g3 fed e2 B|ddd d2 B ABd:|

